packages/tokens/icons/cashRegister/size32Px.svg

<svg viewBox="0 0 32 32" fill="none" xmlns="http://www.w3.org/2000/svg" width="1em" height="1em"><path d="M6.5 10.5V10.5C5.39543 10.5 4.5 11.3954 4.5 12.5L4.5 24.5L27.5 24.5L27.5 12.5C27.5 11.3954 26.6046 10.5 25.5 10.5L14.5 10.5" stroke="currentColor" stroke-linecap="round"/><path d="M16.5 3C16.5 2.72386 16.7239 2.5 17 2.5L27 2.5C27.2761 2.5 27.5 2.72386 27.5 3V7C27.5 7.27614 27.2761 7.5 27 7.5L17 7.5C16.7239 7.5 16.5 7.27614 16.5 7V3Z" stroke="currentColor"/><path d="M20.5 7.5L23.5 7.5V10.5H20.5V7.5Z" stroke="currentColor"/><path d="M2.5 25C2.5 24.7239 2.72386 24.5 3 24.5L29 24.5C29.2761 24.5 29.5 24.7239 29.5 25V29.0001C29.5 29.2763 29.2761 29.5001 29 29.5001L3 29.5001C2.72386 29.5001 2.5 29.2763 2.5 29.0001L2.5 25Z" stroke="currentColor"/><path d="M6.90002 19.5H8.30002M11.1 19.5H12.5M15.3 19.5H16.7M19.5 19.5H20.9M23.7 19.5H25.1M6.90002 22.3H8.30002M11.1 22.3H12.5M15.3 22.3H16.7M19.5 22.3H20.9M23.7 22.3H25.1" stroke="currentColor" stroke-linecap="round"/><path d="M8.5 8C8.5 7.72386 8.72386 7.5 9 7.5L12 7.5C12.2761 7.5 12.5 7.72386 12.5 8V12C12.5 12.2761 12.2761 12.5 12 12.5H9C8.72386 12.5 8.5 12.2761 8.5 12V8Z" stroke="currentColor"/><rect x="15.5" y="13.5" width="10" height="3" rx="1.5" stroke="currentColor"/></svg>

<svg xmlns="http://www.w3.org/2000/svg" fill="none" viewBox="0 0 32 32" width="1em" height="1em"><path stroke="currentColor" stroke-linecap="round" d="M6.5 10.5v0a2 2 0 0 0-2 2v12h23v-12a2 2 0 0 0-2-2h-11"/><path stroke="currentColor" d="M16.5 3a.5.5 0 0 1 .5-.5h10a.5.5 0 0 1 .5.5v4a.5.5 0 0 1-.5.5H17a.5.5 0 0 1-.5-.5V3Zm4 4.5h3v3h-3v-3ZM2.5 25a.5.5 0 0 1 .5-.5h26a.5.5 0 0 1 .5.5v4a.5.5 0 0 1-.5.5H3a.5.5 0 0 1-.5-.5v-4Z"/><path stroke="currentColor" stroke-linecap="round" d="M6.9 19.5h1.4m2.8 0h1.4m2.8 0h1.4m2.8 0h1.4m2.8 0h1.4M6.9 22.3h1.4m2.8 0h1.4m2.8 0h1.4m2.8 0h1.4m2.8 0h1.4"/><path stroke="currentColor" d="M8.5 8a.5.5 0 0 1 .5-.5h3a.5.5 0 0 1 .5.5v4a.5.5 0 0 1-.5.5H9a.5.5 0 0 1-.5-.5V8Z"/><rect width="10" height="3" x="15.5" y="13.5" stroke="currentColor" rx="1.5"/></svg>
